assets/icons/standard/assigned_resource.svg

<svg xmlns="http://www.w3.org/2000/svg" width="100" height="100" viewBox="0 0 100 100"><path d="M49.91,20A25.4,25.4,0,1,0,75.09,45.5C75.09,31.71,63.85,20,49.91,20ZM66.45,43.24,55.93,53.38c-.76.76-1.77.13-1.77-1.14V46.16c-7.6,0-12.67,5.19-12.67,12.8h-7.6a20.12,20.12,0,0,1,20.27-20.4V32.35c0-1.27,1.14-1.9,1.77-1.14L66.45,41.47A1.52,1.52,0,0,1,66.45,43.24Z" fill="#fff" fill-rule="evenodd"/><path d="M26,64.21H24.73A4.75,4.75,0,0,0,20,68.95v6.31A4.74,4.74,0,0,0,24.73,80H75.27A4.75,4.75,0,0,0,80,75.26V68.95a4.74,4.74,0,0,0-4.73-4.74H73.73a30.15,30.15,0,0,1-47.72,0Z" fill="#fff" fill-rule="evenodd"/></svg>

<?xml version="1.0"?><svg xmlns="http://www.w3.org/2000/svg" width="100" height="100" viewBox="0 0 100 100"><title></title><path d="m49.9 20a25.4 25.4 0 1 0 25.2 25.5c0-13.8-11.2-25.5-25.2-25.5z m16.5 23.2l-10.5 10.2c-0.7 0.7-1.7 0.1-1.7-1.2v-6c-7.6 0-12.7 5.2-12.7 12.8h-7.6a20.1 20.1 0 0 1 20.3-20.4v-6.2c0-1.3 1.1-1.9 1.7-1.2l10.6 10.3a1.5 1.5 0 0 1 0 1.7z m-40.4 21h-1.3a4.8 4.8 0 0 0-4.7 4.8v6.3a4.7 4.7 0 0 0 4.7 4.7h50.6a4.8 4.8 0 0 0 4.7-4.7v-6.3a4.7 4.7 0 0 0-4.7-4.8h-1.6a30.1 30.1 0 0 1-47.7 0z" fill="#fff" fill-rule="evenodd"></path></svg>
